X: 134
T: Dipat
O: Greece
F: http://www.youtube.com/watch?v=AoZhGC0mVoY
W: also see
W: http://www.folkloretanznoten.de/
M: 9/8
L: 1/8
K: EPhr^G
 E2         |:\
 AGA A3 c2B |A2G A2G AGAB|\
 cBA A2G AB2|GFE-E3zE2::
 Bcd d2c BAB|GFG z3 GFG  |\
 FEF E3-    |E6 z3       :|



